libs/ui/packages/crypto-icons/src/svg/DYDX.svg

<svg width="19" height="19" viewBox="0 0 19 19" fill="#6666FF">
<g>
<path d="M 12.082031 3.945312 L 4.257812 15.15625 L 6.660156 15.15625 L 14.527344 3.945312 Z M 12.082031 3.945312 "/>
<path d="M 6.910156 3.945312 L 9.210938 7.25 L 8.011719 9.050781 L 4.457031 3.945312 Z M 6.910156 3.945312 "/>
<path d="M 12.316406 15.160156 L 9.761719 11.503906 L 10.964844 9.753906 L 14.71875 15.160156 Z M 12.316406 15.160156 "/>
</g>
</svg>

<svg width="19" height="19" viewBox="0 0 19 19" fill="#66f"><path d="M12.082 3.945 4.258 15.156H6.66l7.867-11.21Zm-5.172 0 2.3 3.305-1.198 1.8-3.555-5.105Zm5.406 11.215-2.554-3.656 1.203-1.75 3.754 5.406Zm0 0"/></svg>
